X:1
T:Hodie Paulus Apostolus - Marenzio
T:#
%%score [ 1 2 3 4 ]
L:1/8
Q:1/4=200
M:none
K:C
V:1 treble nm="Soprano" snm="S"
V:2 treble nm="Alto" snm="A"
V:3 treble-8 nm="Tenor" snm="T"
V:4 bass nm="Bass" snm="B"
V:1
"^Hodie Paulus Apostolus""^Luca Marenzio\n(1556-1599)" z4 (A8 G2 F2 | G2 F2 F2 ED E6) E2 | %2
w: Ho\- * *|* * * * * * di-|
 D4 A8 A4 | B4 (c6 B2 A4- | A4) ^G4 (A6 =GF | E8) z8 |[M:4/2] z16 | z4 (A8 G2 F2 | %8
w: e Pau- lus|A- po\- * *|* sto- lus, * *|||Ho\- * *|
 G2 F2 F2 ED E6) E2 | (D2 E2 F2 G2 A8) | z16 | z4 A8 A4 | B4 (c6 B2 A4- | A4) G4 A8 | z4 E8 ^F4 | %15
w: * * * * * * di-|e * * * *||Pau- lus|A- po\- * *|* sto- lus|lu- men|
 G8 D4 F4- | F4 G4 A8- | A4 B4 c2 (C2 G4- | G2 FE ^F4) G8 | z16 | z16 | z4 d8 c4- | c4 B8 A4- | %23
w: or- bis, lu\-|* men or\-|* bis ter\- * *|* * * * rae,|||in- cli\-|* na- to|
 A4 G8 F4 | E4 e8 d4- | d4 c8 B4- | B4 A8 ^G4 | A16 | z4 A4 e8 | e8 c6 B2 | A4 A4 G6 F2 | %31
w: * ca- pi-|te, in- cli\-|* na- to|* ca- pi-|te,|pro Chri-|sti no- mi-|ne mar- ty- ri-|
 E8 z4 (c4- | c2 BA B4) c4 A4- | (A2 ^G^F G4 A2 =G=F) E4 | E8 z4 (e4- | e2 dc d4) e4 (c4- | %36
w: o co\-|* * * * ro- na\-|* * * * * * * tus|est, co\-|* * * * ro- na\-|
 c2 BA B4) c8 | e8 z4 A4- | (A2 GF G4) A4 (F4- | F2 ED E4) F8 | A8 z4 (d4- | d2 c_B c4) d4 (B4- | %42
w: * * * * tus|est, co\-|* * * * ro- na\-|* * * * tus|est, co\-|* * * * ro- na\-|
 B2 AG A4) G4 E4 | z4 A4 B4 c4- | (c2 B2 A8 ^G4) | (A2 =GF E2 F2 G8) | z4 c4 B4 (c4- | %47
w: * * * * tus est.|Al- le- lu\-||ia, * * * * *|Al- le- lu\-|
 c2 B2 A4) G8 | z4 A4 G4 E4 | (F2 G2 A2 F2 G4) G4 | A4 G4 G8 | z4 G4 (c2 B2 A2 G2 | %52
w: * * * ia,|Al- le- lu-|ia, * * * * Al-|le- lu- ia,|Al- le\- * * *|
 F2 D2 d6 c2 B2 A2 | ^G4 A8) G4 | A16[Q:1/4=197] | %55
w: |* * lu-|ia,|
[Q:1/4=193] z4[Q:1/4=189] A4 (c2 B2[Q:1/4=185] A2 G2 | %56
w: Al- le\- * * *|
[Q:1/4=183] F8)[Q:1/4=177] F8[Q:1/4=182][Q:1/4=181][Q:1/4=180] | %57
w: * lu-|
[Q:1/4=173] !fermata!E16[Q:1/4=171][Q:1/4=170][Q:1/4=170] |] %58
w: ia.|
V:2
 (A,6 B,2 C2 D2 E4- | E2 D2 D8) ^C4 | D8 F8 | E4 A,4 (C6 B,A, | B,6) B,2 (A,6 B,2 | %5
w: Ho\- * * * *|* * * di-|e Pau-|lus A- po\- * *|* sto- lus, *|
 C2 B,2 C2 D2 E8) |[M:4/2] z16 | (A,6 B,2 C2 D2 E4- | E2 D2 D8) ^C4 | D8 F8 | E4 A,4 (F6 ED | %11
w: ||Ho\- * * * *|* * * di-|e Pau-|lus A- po\- * *|
 E6) E2 F4 D4- | D4 E8 (F4- | F4 E2 D2 C6 B,A, | C4) B,4 C8 | D8 z8 | z4 D4 E8 | F8 E8 | %18
w: * sto- lus lu\-|* men or\-||* bis ter-|rae,|lu- men|or- bis|
 A,8 G,4 G4- | G4 F8 E4- | E4 D8 C4- | C4 B,4 A,8 | E8 D8 | (C6 B,A, B,4) D4 | A,6 G,2 G,4 G4 | %25
w: ter- rae, in\-|* cli- na\-|* to ca\-|* pi- te,|in- cli-|na\- * * * to|ca- pi- te pro|
 E16- | E8 E8 | C4 F4 F4 E4 | F6 F2 E4 A,4 | E16 | E8 E6 D2 | C4 B,4 E8- | E4 E4 E8- | E8 z4 (C4- | %34
w: Chri\-|* sti|no- mi- ne mar-|ty- ri- o, pro|Chri-|sti no- mi-|ne mar- ty\-|* ri- o|* co\-|
 C2 B,A, B,4) E8 | G6 G2 G4 (E4- | E2 DC D4) E8 | E12 F4 | C8 z4 (A4- | A2 GF G4) A4 (F4- | %40
w: * * * * ro-|na- tus est, co\-|* * * * ro-|na- tus|est, co\-|* * * * ro- na\-|
 F2 ED E4) F8 | (F6 E2 D8) | z4 A,4 B,4 ^C4 | D4 (D6 CB, A,4) | (E2 D2 C4) B,8 | A,8 z8 | %46
w: * * * * tus|est. * *|Al- le- lu-|ia, Al\- * * *|le\- * * lu-|ia,|
 z4 C4 D4 E4 | (A,2 B,2 C2 D2 E8) | z4 C4 B,4 ^C4 | D4 D8 E4 | D8 E8 | E16 | (A8 F8) | E16 | %54
w: Al- le- lu-|ia, * * * *|Al- le- lu-|ia, Al- le-|lu- ia,|Al-|le\- *|lu-|
 E8 E8 | (F4 E8 F4- | F2 E2 D2 C2) (D8- | D4 ^C2 B,2) !fermata!C8 |] %58
w: ia, Al-|le\- * *|* * * * lu\-|* * * ia.|
V:3
 z16 | z16 | z16 | z16 | z16 | (A6 B2 c2 d2 e4-) |[M:4/2][K:treble-8] (e2 d2 d8) ^c4 | %7
w: |||||Ho\- * * * *|* * * di-|
 d4 (A6 B2 c4- | c2 d2 _B4) A8 | D8 d8 | c8 A8 | A6 A2 A8 | z4 A8 A4 | B4 (c6 B2 A4- | A4) ^G4 A8 | %15
w: e, ho\- * *|* * * di-|e Pau-|lus A-|po- sto- lus,|Pau- lus|A- po\- * *|* sto- lus|
 z4 B8 c4 | d8 c8 | F8 G8 | (c6 d2 e4) d4 | c8 B8 | A8 G8 | F8 z8 | z16 | z16 | z4 c8 B4- | %25
w: lu- men|or- bis|ter- rae,|in\- * * cli-|na- to|ca- pi-|te,|||in- cli\-|
 B4 A8 G4 | c8 B8 | A4 D4 A8 | A8 c6 B2 | A4 ^G4 A8- | A4 A4 B8 | G6 F2 E4 E4 | E6 E2 E4 c4- | %33
w: * na- to|ca- pi-|te pro Chri-|sti no- mi-|ne mar- ty\-|* ri- o,|no- mi- ne mar-|ty- ri- o co\-|
 (c2 BA B4) (A6 GF | E8) (c6 BA | G4) G4 C8 | z8 z4 (c4- | c2 BA B4) c8 | A4 c4 c8- | c8 F4 A4 | %40
w: * * * * ro\- * *|* na\- * *|* tus est,|co\-|* * * * ro-|na- tus est,|* co- ro-|
 A12 _B4 | F16- | F8 z8 | z4 A4 G4 F4 | c8 z8 | z4 c4 d4 e4 | A8 z8 | z4 A4 B4 c4 | F8 z8 | %49
w: na- tus|est.||Al- le- lu-|ia,|Al- le- lu-|ia,|Al- le- lu-|ia,|
 z4 A4 B4 (c4- | c2 BA B4) (c6 BA) | G8 G4 (c2 B2 | A2 G2 F2 D2 d6 c2 | B4 A4) B8 | A16- | %55
w: Al- le- lu\-|* * * * ia, * *|* Al- le\- *||* * lu-|ia,|
 A8 z4 A4 | A8 A8 | !fermata!A16 |] %58
w: * Al-|le- lu-|ia.|
V:4
 z16 | z16 | z16 | z16 | z16 | z4 (A,8 G,2 F,2) |[M:4/2] (G,2 F,2 F,2 E,D, E,6) E,2 | D,8 z8 | %8
w: |||||Ho\- * *|* * * * * * di-|e|
 z16 | z4 D,8 D,4 | E,4 (F,6 E,2 D,4- | D,4) ^C,4 D,8 | z8 z4 D,4- | D,4 E,4 F,8 | E,8 A,,8 | %15
w: |Pau- lus|A- po\- * *|* sto- lus|lu\-|* men or-|bis ter-|
 G,,4 G,8 A,4 | _B,8 A,8 | D,8 C,8 | z4 C8 B,4 | A,8 G,8 | F,8 E,8 | D,8 z4 A,4- | A,4 G,8 F,4- | %23
w: rae, lu- men|or- bis|ter- rae,|in- cli-|na- to|ca- pi-|te, in\-|* cli- na\-|
 F,4 E,8 D,4- | D,4 C,4 G,,8 | A,,8 E,8- | E,8 E,8 | F,6 E,2 D,4 ^C,4 | D,6 D,2 A,,8 | z16 | %30
w: * to ca\-|* pi- te|pro Chri\-|* sti|no- mi- ne mar-|ty- ri- o,||
 z4 A,,4 E,8 | E,8 C,6 B,,2 | A,,4 ^G,,4 A,,6 A,,2 | E,8 z4 (A,4- | A,2 ^G,^F, G,4) A,4 (C4- | %35
w: pro Chri-|sti no- mi-|ne mar- ty- ri-|o, co\-|* * * * ro- na\-|
 C2 B,A, B,4) C8 | G,8 z4 (A,4- | A,2 ^G,^F, G,4) A,4 =F,4- | (F,2 E,D, E,4) F,8 | C,8 z4 (D,4- | %40
w: * * * * tus|est, co\-|* * * * ro- na\-|* * * * tus|est, co\-|
 D,2 ^C,B,,) C,4 D,4 (_B,,4- | B,,2 A,,G,, A,,4) _B,,8 | F,,4 F,4 G,4 A,4 | D,8 z8 | %44
w: * * * ro- na- *|* * * * tus|est. Al- le- lu-|ia,|
 z4 C,4 D,4 E,4 | A,,4 A,4 B,4 C4 | F,4 A,4 G,4 E,4 | F,4 F,4 E,4 C,4 | D,4 F,4 G,4 A,4 | %49
w: Al- le- lu-|ia, Al- le- lu-|ia, Al- le- lu-|ia, Al- le- lu-|ia, Al- le- lu-|
 D,8 z4 E,4 | F,4 G,4 C,8 | C,16 | D,16 | E,16 | A,,4 A,4 (C2 B,2 A,2 G,2 | %55
w: ia, Al-|le- lu- ia,|Al-|le-|lu-|ia, Al- le\- * * *|
 F,2 D,2 A,6 G,2 F,2 E,2 | D,8) D,8 | !fermata!A,,16 |] %58
w: |* lu-|ia.|

